web/assets/img/functions/530_6.svg

<svg id="vector" xmlns="http://www.w3.org/2000/svg" width="512" height="512" viewBox="0 0 512 512">
    <path fill="#000000"
          d="M401,197.86H210V161.86C210,159.21 208.95,156.66 207.07,154.79C205.2,152.91 202.65,151.86 200,151.86H128C125.35,151.86 122.8,152.91 120.93,154.79C119.05,156.66 118,159.21 118,161.86V197.86H111C81.84,197.9 53.88,209.49 33.26,230.12C12.63,250.74 1.03,278.7 1,307.86V353.86C1.03,383.02 12.63,410.98 33.25,431.61C53.88,452.23 81.84,463.83 111,463.86H118V482.86C118,485.51 119.05,488.06 120.93,489.93C122.8,491.81 125.35,492.86 128,492.86H200C202.65,492.86 205.2,491.81 207.07,489.93C208.95,488.06 210,485.51 210,482.86V463.86H302V482.86C302,485.51 303.05,488.06 304.93,489.93C306.8,491.81 309.35,492.86 312,492.86H384C386.65,492.86 389.2,491.81 391.07,489.93C392.95,488.06 394,485.51 394,482.86V463.86H401C430.16,463.83 458.13,452.23 478.75,431.61C499.37,410.98 510.97,383.02 511,353.86V307.86C510.97,278.7 499.36,250.74 478.74,230.12C458.12,209.49 430.16,197.9 401,197.86ZM118,443.86H111C87.14,443.83 64.26,434.34 47.39,417.47C30.52,400.6 21.03,377.72 21,353.86V307.86C21.03,284 30.52,261.12 47.39,244.25C64.26,227.38 87.14,217.89 111,217.86H118V443.86ZM138,171.86H190V197.86H138V171.86ZM190,472.86H138V463.86H190V472.86ZM138,443.86V217.86H373V443.86H138ZM374,472.86H322V463.86H374V472.86ZM491,353.86C490.97,377.72 481.48,400.6 464.61,417.47C447.74,434.34 424.86,443.83 401,443.86H393V217.86H401C424.86,217.89 447.74,227.38 464.61,244.25C481.48,261.12 490.97,284 491,307.86V353.86Z"
          id="path_0"/>
    <path fill="#000000"
          d="M144,134C141.35,134 138.8,132.95 136.93,131.07C135.05,129.2 134,126.65 134,124C133.93,117.69 135.92,111.52 139.68,106.45C141.37,103.92 142,103 142,100C142,97 141.37,96.08 139.68,93.55C135.99,88.44 134.01,82.3 134.01,76C134.01,69.7 135.99,63.56 139.68,58.45C141.37,55.92 142,55 142,52C142,49.35 143.05,46.8 144.93,44.93C146.8,43.05 149.35,42 152,42C154.65,42 157.2,43.05 159.07,44.93C160.95,46.8 162,49.35 162,52C162.07,58.31 160.08,64.48 156.32,69.55C154.63,72.08 154,73 154,76C154,79 154.63,79.92 156.32,82.45C160.01,87.56 161.99,93.7 161.99,100C161.99,106.3 160.01,112.44 156.32,117.55C154.63,120.08 154,121 154,124C154,126.65 152.95,129.2 151.07,131.07C149.2,132.95 146.65,134 144,134Z"
          id="path_1"/>
    <path fill="#000000"
          d="M180,134C177.35,134 174.8,132.95 172.93,131.07C171.05,129.2 170,126.65 170,124C169.93,117.69 171.92,111.52 175.68,106.45C177.37,103.92 178,103 178,100C178,97 177.37,96.08 175.68,93.55C171.99,88.44 170.01,82.3 170.01,76C170.01,69.7 171.99,63.56 175.68,58.45C177.37,55.92 178,55 178,52C178,49.35 179.05,46.8 180.93,44.93C182.8,43.05 185.35,42 188,42C190.65,42 193.2,43.05 195.07,44.93C196.95,46.8 198,49.35 198,52C198.07,58.31 196.08,64.48 192.32,69.55C190.63,72.08 190,73 190,76C190,79 190.63,79.92 192.32,82.45C196.01,87.56 197.99,93.7 197.99,100C197.99,106.3 196.01,112.44 192.32,117.55C190.63,120.08 190,121 190,124C190,126.65 188.95,129.2 187.07,131.07C185.2,132.95 182.65,134 180,134Z"
          id="path_2"/>
    <path fill="#00D151"
          d="M296.82,400.93H215.18C208.28,400.93 201.59,398.58 196.21,394.27C190.83,389.95 187.08,383.93 185.59,377.2C184.09,370.46 184.94,363.42 187.99,357.23C191.04,351.05 196.11,346.09 202.36,343.17C201.14,340.06 200.52,336.74 200.53,333.4C200.54,328.06 202.13,322.84 205.11,318.4C208.09,313.96 212.32,310.51 217.26,308.48C216.82,306.67 216.6,304.81 216.6,302.95V284.33C216.61,278.09 219.09,272.11 223.5,267.69C227.92,263.28 233.9,260.8 240.14,260.79H249.45C250.93,260.79 252.39,261.12 253.73,261.76C255.07,262.4 256.25,263.32 257.18,264.47C258.12,265.62 258.79,266.96 259.14,268.4C259.5,269.84 259.53,271.34 259.23,272.79C258.7,275.52 258.54,278.3 258.74,281.07H274.4C290,281.07 300.48,291.21 300.48,306.29C300.48,307.96 300.27,309.61 299.86,311.23C304.84,314.67 308.51,319.69 310.29,325.48C312.06,331.27 311.83,337.49 309.64,343.13C315.89,346.05 320.96,351.01 324.01,357.19C327.06,363.38 327.91,370.42 326.41,377.15C324.92,383.89 321.17,389.91 315.79,394.23C310.41,398.54 303.72,400.89 296.82,400.89V400.93ZM215.18,360.32C213.8,360.28 212.42,360.51 211.14,361.01C209.85,361.51 208.67,362.26 207.68,363.22C206.69,364.18 205.9,365.33 205.36,366.61C204.83,367.88 204.55,369.24 204.55,370.63C204.55,372.01 204.83,373.37 205.36,374.64C205.9,375.92 206.69,377.07 207.68,378.03C208.67,378.99 209.85,379.74 211.14,380.24C212.42,380.74 213.8,380.97 215.18,380.93H296.82C298.2,380.97 299.58,380.74 300.86,380.24C302.15,379.74 303.33,378.99 304.32,378.03C305.31,377.07 306.1,375.92 306.64,374.64C307.17,373.37 307.45,372.01 307.45,370.63C307.45,369.24 307.17,367.88 306.64,366.61C306.1,365.33 305.31,364.18 304.32,363.22C303.33,362.26 302.15,361.51 300.86,361.01C299.58,360.51 298.2,360.28 296.82,360.32H284.55C281.9,360.32 279.35,359.27 277.48,357.39C275.6,355.52 274.55,352.97 274.55,350.32C274.55,347.67 275.6,345.12 277.48,343.25C279.35,341.37 281.9,340.32 284.55,340.32C286.39,340.32 288.14,339.59 289.44,338.29C290.74,336.99 291.47,335.23 291.47,333.4C291.47,331.57 290.74,329.8 289.44,328.51C288.14,327.21 286.39,326.48 284.55,326.48H280.32C277.67,326.48 275.12,325.43 273.25,323.55C271.37,321.68 270.32,319.13 270.32,316.48C270.32,313.83 271.37,311.28 273.25,309.41C275.12,307.53 277.67,306.48 280.32,306.48C280.36,306.48 280.4,306.46 280.43,306.43C280.45,306.4 280.47,306.36 280.47,306.32C280.47,303.87 280.47,301.1 274.39,301.1H256.21C253.75,301.14 251.32,300.62 249.1,299.58C246.87,298.54 244.91,297.01 243.37,295.1C240.14,291.1 238.95,285.92 238.68,281.1C238.06,281.38 237.54,281.83 237.17,282.4C236.8,282.98 236.6,283.64 236.6,284.32V303C236.6,303.94 236.97,304.84 237.63,305.5C238.29,306.16 239.19,306.54 240.13,306.54C242.78,306.54 245.32,307.59 247.2,309.47C249.08,311.34 250.13,313.89 250.13,316.54C250.13,319.19 249.08,321.74 247.2,323.61C245.32,325.49 242.78,326.54 240.13,326.54H227.43C225.59,326.54 223.83,327.27 222.54,328.57C221.24,329.86 220.51,331.63 220.51,333.46C220.51,335.3 221.24,337.05 222.54,338.35C223.83,339.65 225.59,340.38 227.43,340.38C230.08,340.38 232.63,341.43 234.5,343.31C236.38,345.18 237.43,347.73 237.43,350.38C237.43,353.03 236.38,355.58 234.5,357.45C232.63,359.33 230.08,360.38 227.43,360.38L215.18,360.32Z"
          id="path_3"/>
    <path fill="#000000"
          d="M227,83C232.52,83 237,78.52 237,73C237,67.48 232.52,63 227,63C221.48,63 217,67.48 217,73C217,78.52 221.48,83 227,83Z"
          id="path_4"/>
    <path fill="#000000"
          d="M82,124C87.52,124 92,119.52 92,114C92,108.48 87.52,104 82,104C76.48,104 72,108.48 72,114C72,119.52 76.48,124 82,124Z"
          id="path_5"/>
    <path fill="#000000"
          d="M120,45C125.52,45 130,40.52 130,35C130,29.48 125.52,25 120,25C114.48,25 110,29.48 110,35C110,40.52 114.48,45 120,45Z"
          id="path_6"/>
</svg>

<?xml version="1.0" encoding="utf-8"?>
<!-- Generator: Adobe Illustrator 28.2.0, SVG Export Plug-In . SVG Version: 6.00 Build 0)  -->
<svg version="1.1" id="vector" xmlns="http://www.w3.org/2000/svg" xmlns:xlink="http://www.w3.org/1999/xlink" x="0px" y="0px"
	 viewBox="0 0 512 512" style="enable-background:new 0 0 512 512;" xml:space="preserve">
<style type="text/css">
	.st0{fill:#33B0DF;}
</style>
<path id="path_0" d="M401,197.9H210v-36c0-2.6-1.1-5.2-2.9-7.1c-1.9-1.9-4.4-2.9-7.1-2.9h-72c-2.7,0-5.2,1.1-7.1,2.9
	c-1.9,1.9-2.9,4.4-2.9,7.1v36h-7c-29.2,0-57.1,11.6-77.7,32.3C12.6,250.7,1,278.7,1,307.9v46C1,383,12.6,411,33.2,431.6
	c20.6,20.6,48.6,32.2,77.8,32.2h7v19c0,2.7,1.1,5.2,2.9,7.1c1.9,1.9,4.4,2.9,7.1,2.9h72c2.6,0,5.2-1,7.1-2.9
	c1.9-1.9,2.9-4.4,2.9-7.1v-19h92v19c0,2.7,1,5.2,2.9,7.1c1.9,1.9,4.4,2.9,7.1,2.9h72c2.6,0,5.2-1,7.1-2.9c1.9-1.9,2.9-4.4,2.9-7.1
	v-19h7c29.2,0,57.1-11.6,77.8-32.2C499.4,411,511,383,511,353.9v-46c0-29.2-11.6-57.1-32.3-77.7C458.1,209.5,430.2,197.9,401,197.9z
	 M118,443.9h-7c-23.9,0-46.7-9.5-63.6-26.4S21,377.7,21,353.9v-46c0-23.9,9.5-46.7,26.4-63.6s39.8-26.4,63.6-26.4h7V443.9z
	 M138,171.9h52v26h-52V171.9z M190,472.9h-52v-9h52V472.9z M138,443.9v-226h235v226H138z M374,472.9h-52v-9h52V472.9z M491,353.9
	c0,23.9-9.5,46.7-26.4,63.6c-16.9,16.9-39.8,26.4-63.6,26.4h-8v-226h8c23.9,0,46.7,9.5,63.6,26.4c16.9,16.9,26.4,39.8,26.4,63.6
	V353.9z"/>
<path id="path_1" d="M144,134c-2.6,0-5.2-1.1-7.1-2.9c-1.9-1.9-2.9-4.4-2.9-7.1c-0.1-6.3,1.9-12.5,5.7-17.6c1.7-2.5,2.3-3.4,2.3-6.4
	s-0.6-3.9-2.3-6.4C136,88.4,134,82.3,134,76s2-12.4,5.7-17.5c1.7-2.5,2.3-3.5,2.3-6.5c0-2.7,1.1-5.2,2.9-7.1
	c1.9-1.9,4.4-2.9,7.1-2.9s5.2,1,7.1,2.9c1.9,1.9,2.9,4.4,2.9,7.1c0.1,6.3-1.9,12.5-5.7,17.6c-1.7,2.5-2.3,3.4-2.3,6.4
	s0.6,3.9,2.3,6.4c3.7,5.1,5.7,11.2,5.7,17.6s-2,12.4-5.7,17.6c-1.7,2.5-2.3,3.4-2.3,6.4c0,2.7-1.1,5.2-2.9,7.1
	C149.2,132.9,146.6,134,144,134z"/>
<path id="path_2" d="M180,134c-2.6,0-5.2-1.1-7.1-2.9c-1.9-1.9-2.9-4.4-2.9-7.1c-0.1-6.3,1.9-12.5,5.7-17.6c1.7-2.5,2.3-3.4,2.3-6.4
	s-0.6-3.9-2.3-6.4C172,88.4,170,82.3,170,76s2-12.4,5.7-17.5c1.7-2.5,2.3-3.5,2.3-6.5c0-2.7,1.1-5.2,2.9-7.1
	c1.9-1.9,4.4-2.9,7.1-2.9s5.2,1,7.1,2.9c1.9,1.9,2.9,4.4,2.9,7.1c0.1,6.3-1.9,12.5-5.7,17.6c-1.7,2.5-2.3,3.4-2.3,6.4
	s0.6,3.9,2.3,6.4c3.7,5.1,5.7,11.2,5.7,17.6s-2,12.4-5.7,17.6c-1.7,2.5-2.3,3.4-2.3,6.4c0,2.7-1.1,5.2-2.9,7.1
	C185.2,132.9,182.6,134,180,134z"/>
<path id="path_3" class="st0" d="M296.8,400.9h-81.6c-6.9,0-13.6-2.4-19-6.7c-5.4-4.3-9.1-10.3-10.6-17.1c-1.5-6.7-0.6-13.8,2.4-20
	c3-6.2,8.1-11.1,14.4-14.1c-1.2-3.1-1.8-6.4-1.8-9.8c0-5.3,1.6-10.6,4.6-15s7.2-7.9,12.1-9.9c-0.4-1.8-0.7-3.7-0.7-5.5v-18.6
	c0-6.2,2.5-12.2,6.9-16.6c4.4-4.4,10.4-6.9,16.6-6.9h9.3c1.5,0,2.9,0.3,4.3,1c1.3,0.6,2.5,1.6,3.4,2.7c0.9,1.1,1.6,2.5,2,3.9
	c0.4,1.4,0.4,2.9,0.1,4.4c-0.5,2.7-0.7,5.5-0.5,8.3h15.7c15.6,0,26.1,10.1,26.1,25.2c0,1.7-0.2,3.3-0.6,4.9c5,3.4,8.7,8.5,10.4,14.2
	c1.8,5.8,1.5,12-0.6,17.6c6.2,2.9,11.3,7.9,14.4,14.1c3,6.2,3.9,13.2,2.4,20c-1.5,6.7-5.2,12.8-10.6,17.1
	C310.4,398.5,303.7,400.9,296.8,400.9L296.8,400.9z M215.2,360.3c-1.4,0-2.8,0.2-4,0.7c-1.3,0.5-2.5,1.2-3.5,2.2
	c-1,1-1.8,2.1-2.3,3.4c-0.5,1.3-0.8,2.6-0.8,4c0,1.4,0.3,2.7,0.8,4c0.5,1.3,1.3,2.4,2.3,3.4c1,1,2.2,1.7,3.5,2.2
	c1.3,0.5,2.7,0.7,4,0.7h81.6c1.4,0,2.8-0.2,4-0.7c1.3-0.5,2.5-1.2,3.5-2.2c1-1,1.8-2.1,2.3-3.4c0.5-1.3,0.8-2.6,0.8-4
	c0-1.4-0.3-2.8-0.8-4c-0.5-1.3-1.3-2.4-2.3-3.4c-1-1-2.2-1.7-3.5-2.2c-1.3-0.5-2.7-0.7-4-0.7h-12.3c-2.6,0-5.2-1.1-7.1-2.9
	c-1.9-1.9-2.9-4.4-2.9-7.1s1.1-5.2,2.9-7.1c1.9-1.9,4.4-2.9,7.1-2.9c1.8,0,3.6-0.7,4.9-2c1.3-1.3,2-3.1,2-4.9c0-1.8-0.7-3.6-2-4.9
	c-1.3-1.3-3-2-4.9-2h-4.2c-2.6,0-5.2-1.1-7.1-2.9c-1.9-1.9-2.9-4.4-2.9-7.1c0-2.7,1-5.2,2.9-7.1c1.9-1.9,4.4-2.9,7.1-2.9
	c0,0,0.1,0,0.1-0.1c0,0,0-0.1,0-0.1c0-2.5,0-5.2-6.1-5.2h-18.2c-2.5,0-4.9-0.5-7.1-1.5c-2.2-1-4.2-2.6-5.7-4.5
	c-3.2-4-4.4-9.2-4.7-14c-0.6,0.3-1.1,0.7-1.5,1.3c-0.4,0.6-0.6,1.2-0.6,1.9V303c0,0.9,0.4,1.8,1,2.5c0.7,0.7,1.6,1,2.5,1
	c2.6,0,5.2,1,7.1,2.9c1.9,1.9,2.9,4.4,2.9,7.1s-1.1,5.2-2.9,7.1c-1.9,1.9-4.4,2.9-7.1,2.9h-12.7c-1.8,0-3.6,0.7-4.9,2
	c-1.3,1.3-2,3.1-2,4.9c0,1.8,0.7,3.6,2,4.9c1.3,1.3,3.1,2,4.9,2c2.7,0,5.2,1,7.1,2.9c1.9,1.9,2.9,4.4,2.9,7.1s-1,5.2-2.9,7.1
	c-1.9,1.9-4.4,2.9-7.1,2.9L215.2,360.3z"/>
<path id="path_4" d="M227,83c5.5,0,10-4.5,10-10s-4.5-10-10-10s-10,4.5-10,10S221.5,83,227,83z"/>
<path id="path_5" d="M82,124c5.5,0,10-4.5,10-10s-4.5-10-10-10s-10,4.5-10,10S76.5,124,82,124z"/>
<path id="path_6" d="M120,45c5.5,0,10-4.5,10-10s-4.5-10-10-10s-10,4.5-10,10S114.5,45,120,45z"/>
</svg>
